build/category/StrimSolid.svg

<svg xmlns="http://www.w3.org/2000/svg" fill="none" viewBox="0 0 24 24" focusable="false"><path d="M0 0H24V24H0z"/><path fill="#74767B" fill-rule="evenodd" d="M19.6284 13.9078C19.6768 13.5618 19.7018 13.2084 19.7018 12.849C19.7018 9.64111 17.7083 6.90069 14.8877 5.76853C14.8373 4.23106 13.5631 3 11.9986 3C10.4341 3 9.15991 4.23095 9.10946 5.7683C6.28857 6.90033 4.29482 9.6409 4.29482 12.849C4.29482 13.2084 4.31984 13.5618 4.36822 13.9078C3.5469 14.4128 3 15.3142 3 16.3421C3 17.9233 4.29419 19.2051 5.89066 19.2051C6.38425 19.2051 6.84895 19.0826 7.25544 18.8665C8.56376 19.8809 10.2108 20.4851 11.9983 20.4851C13.7858 20.4851 15.4328 19.8809 16.7412 18.8665C17.1477 19.0825 17.6124 19.2051 18.106 19.2051C19.7025 19.2051 20.9966 17.9233 20.9966 16.3421C20.9966 15.3142 20.4497 14.4128 19.6284 13.9078ZM14.6218 7.06727C14.1627 8.04679 13.1607 8.72604 11.9986 8.72604C10.8363 8.72604 9.83432 8.0467 9.3752 7.06707C7.14461 8.05931 5.59482 10.2779 5.59482 12.849C5.59482 13.0656 5.60582 13.2797 5.6273 13.4908C5.71403 13.483 5.80188 13.479 5.89066 13.479C7.48712 13.479 8.78131 14.7609 8.78131 16.3421C8.78131 16.9557 8.58642 17.5242 8.25461 17.9902C9.30676 18.7418 10.5994 19.1851 11.9983 19.1851C13.3972 19.1851 14.6899 18.7418 15.742 17.9902C15.4102 17.5242 15.2153 16.9556 15.2153 16.3421C15.2153 14.7609 16.5095 13.479 18.106 13.479C18.1947 13.479 18.2826 13.483 18.3693 13.4908C18.3908 13.2797 18.4018 13.0656 18.4018 12.849C18.4018 10.2781 16.8522 8.05962 14.6218 7.06727Z"/></svg>

<svg xmlns="http://www.w3.org/2000/svg" fill="none" viewBox="0 0 24 24" focusable="false"><path fill="#74767B" fill-rule="evenodd" d="M19.62 13.9c.05-.34.08-.7.08-1.06 0-3.2-2-5.94-4.82-7.08C14.83 4.23 13.56 3 11.99 3 10.43 3 9.15 4.23 9.1 5.76 6.28 6.9 4.29 9.64 4.29 12.84c0 .36.02.72.07 1.06-.82.51-1.36 1.41-1.36 2.44 0 1.58 1.29 2.86 2.89 2.86.49 0 .95-.12 1.36-.34a7.7 7.7 0 0 0 4.74 1.62c1.79 0 3.44-.6 4.75-1.62.4.22.87.34 1.36.34 1.6 0 2.89-1.28 2.89-2.86 0-1.03-.55-1.93-1.37-2.44m-5-6.84c-.46.98-1.46 1.66-2.63 1.66-1.16 0-2.16-.68-2.62-1.66-2.23.99-3.78 3.21-3.78 5.78 0 .22.01.43.03.65.09-.01.18-.02.27-.02 1.59 0 2.89 1.29 2.89 2.87 0 .61-.2 1.18-.53 1.65 1.05.75 2.34 1.19 3.74 1.19s2.69-.44 3.75-1.19a2.87 2.87 0 0 1-.53-1.65 2.88 2.88 0 0 1 2.89-2.87c.09 0 .18.01.26.02.03-.22.04-.43.04-.65 0-2.57-1.55-4.79-3.78-5.78"/></svg>
